X: 69
T: Spring's Coming
C: Attenhofer
N: Translated from Alfred Hartman.
Q: "Andante dolce."
%R: air, march
B: "The Everyday Song Book", 1927
F: http://www.library.pitt.edu/happybirthday/pdf/The_Everyday_Song_Book.pdf
Z: 2017 John Chambers <jc:trillian.mit.edu>
M: 4/4
L: 1/4
K: Ab
% - - - - - - - - - - - - - - -
[| c A c A | B A/B/ A2 | F A G F | E2 A2 |
w: 1.~Come, oh~ come, dear maid-en* Spring, With your love-ly treas-ures,
w: 2.~Snow-drop rings her ti-ny* bells,     Such a sil-v'ry chim-ing!
w: 3.~Cro-cus there and prim-rose* here,    Sly-ly peep a-bout them;
%
B E c E | d c B2 !p!| E e c A | G2 A2 |]
w: Birds to si-lent wood-lands bring; Flow-ers, to the gar-dens.
w: Wakes her cous-ins in the dells    From their win-ter's dream-ing.
w: Daf-fo-dil and vio-let dear\-\-    What were Spring with-out them?
% - - - - - - - - - - - - - - -
